X:1
T: Ann Nisbet
C:
R:Strathspey
Q:128
K:G
M:4/4
L:1/16
|:D4|D3E F3G B4 A3G|A3G AB3 E8|F3G ^G3A f4e4|e3d ^cd3 B4D4|
D3E F3G B4 A3G|A3G AB3 E8|F3A ce3 d3F B3A|G4 B4 G4 (3FG^G|
A4 F3A D3A FA3|G3F Ge3 d8|A4 A3B c3A FA3|G3F GE3 D8|
E4 EG3 D4 DG3|C4 CG3 B,6E2|E3A c3e d3F B3A|G4 B4 G4:|
